autogermania/dist/img/svg/gearbox-robot.svg

<svg xmlns="http://www.w3.org/2000/svg" width="14" height="25"><path fill-rule="evenodd" d="M14 22.255c0 .125.001.253-.06.365a.528.528 0 01-.493.294l-.969-.001c-.165 0-.33 0-.496.002-.039 0-.079.003-.13.006-.004.052-.009.097-.009.143-.001.468.001.936-.003 1.405-.001.235-.116.402-.345.491-.016.007-.028.025-.042.038h-4.6c-.011-.01-.019-.028-.032-.033-.267-.09-.356-.294-.368-.543-.008-.16-.001-.32-.001-.48V18.32a.6.6 0 01.132-.413.483.483 0 01.357-.186c.17-.004.339-.006.508-.006h1.029c.039 0 .079-.004.129-.008.004-.049.009-.091.009-.132V8.884c0-.234.103-.402.322-.498A.454.454 0 019.1 8.35c.238-.006.476-.007.714-.008.274-.001.549.002.823.001.117-.001.135-.018.135-.13V6.269c0-.027-.004-.054-.007-.089-.072-.035-.146-.072-.221-.107a2.527 2.527 0 01-.811-.638 4.57 4.57 0 01-.703-1.124 3.287 3.287 0 01-.221-.599c-.037-.159-.096-.312-.128-.47-.061-.308-.096-.62-.053-.931.097-.694.42-1.273.981-1.719.209-.167.441-.298.697-.394.185-.068.369-.126.565-.153.042-.006.081-.031.122-.046h.654c.034.016.066.043.102.048a2.638 2.638 0 011.547.815c.264.277.452.602.571.966.08.241.12.486.126.735.008.301-.035.599-.122.889-.042.141-.07.287-.122.425a7.264 7.264 0 01-.259.618c-.133.277-.294.54-.487.782-.283.357-.605.669-1.046.841-.037.015-.07.038-.106.058v2.158c.055.004.102.009.149.009.464.001.928-.002 1.392.002.09.001.188.007.27.039.235.093.333.279.336.517.002.269.002.538.002.808l-.001 6.431.001 6.115zM12.188 4.601c.227-.305.396-.639.526-.993.114-.313.201-.63.195-1.004-.008-.104-.004-.245-.044-.389a1.586 1.586 0 00-.452-.737c-.301-.283-.674-.407-1.084-.437-.048-.004-.097.005-.145.011a2.382 2.382 0 00-.166.026c-.09.018-.185.027-.268.061-.303.123-.564.3-.757.564a1.51 1.51 0 00-.302.984c.017.363.111.713.247 1.05.116.288.26.564.446.816.156.211.325.41.559.548a.649.649 0 00.71.007 1.85 1.85 0 00.535-.507zm.701 4.784h-1.047v.144l.001 2.402a.587.587 0 01-.045.249.538.538 0 01-.904.138c-.104-.113-.123-.248-.123-.392.002-.801.001-1.601.001-2.402v-.12c-.113-.035-.969-.035-1.086-.001v7.043c0 .581.002 1.164-.001 1.745a.625.625 0 01-.043.239c-.094.221-.276.321-.521.321H7.548v.138l-.001 1.16.001 3.771c0 .045.009.09.014.143h.543l2.517.001c.139 0 .15-.011.15-.149v-.457c.001-.309-.001-.617.002-.925 0-.073.003-.151.028-.218a.543.543 0 01.511-.338c.484.006.968.001 1.452.001h.126c.03-.127.026-12.403-.002-12.493zM2.891 3.57a1.56 1.56 0 01-.603.461 1.435 1.435 0 01-.52.132l-.545.007c-.13.001-.134.004-.134.134l-.001 1.382a.551.551 0 01-.195.444c-.317.264-.782.08-.855-.246a1.252 1.252 0 01-.036-.264c-.004-.328 0-.657 0-.984v-.985H.001V1.625c.001-.227.085-.413.302-.517a.7.7 0 01.278-.066c.342-.007.686-.012 1.028 0 .475.016.89.175 1.212.527.173.189.289.404.359.648.066.226.061.451.029.672-.036.251-.15.482-.318.681zm-.78-1.162c-.085-.176-.217-.296-.428-.304-.173-.007-.346-.004-.519-.004-.02 0-.039.007-.066.012v1.019h.604c.008 0 .017 0 .025-.002.322-.089.534-.41.384-.721zM.146 19.965a.507.507 0 01.402-.177c.183.008.354.078.448.249.106.191.205.384.306.577l.541 1.039c.091.175.179.352.268.528.005.008.014.015.039.042.004-.064.008-.108.008-.152l.001-1.757a.483.483 0 01.199-.404.545.545 0 01.817.168c.05.092.053.185.053.282l-.001 2.038v1.921l-.001.176c-.003.227-.123.375-.332.464-.015.006-.024.026-.036.039h-.29c-.016-.01-.031-.027-.05-.033a.525.525 0 01-.32-.29c-.115-.232-.236-.461-.355-.692l-.592-1.145c-.04-.076-.085-.149-.127-.224a.147.147 0 00-.035.094c-.001.18 0 .359 0 .539 0 .394.005.788-.002 1.182-.005.245-.099.443-.357.534-.011.005-.018.024-.026.035H.389c-.013-.013-.023-.033-.039-.038-.243-.089-.339-.276-.346-.509-.009-.32-.004-.64-.004-.96l.002-3.104c0-.157.036-.3.144-.422zm.15-6.358a.64.64 0 01.266-.062c.367-.007.734-.013 1.1-.001.644.021 1.229.403 1.465 1.009.076.193.101.388.101.591l-.001 1.803c0 .121.003.243-.004.363-.027.46-.249.821-.611 1.109a1.573 1.573 0 01-.868.325c-.407.009-.814.013-1.221.003-.297-.007-.499-.215-.519-.521-.009-.136-.002-.274-.002-.41v-3.712c.001-.217.086-.397.294-.497zm.792 1.141l.001 1.874v.973c.001.11.011.118.126.12.117.001.235.008.351-.002a.917.917 0 00.292-.062.491.491 0 00.3-.476c.001-.691.002-1.382-.002-2.074a.52.52 0 00-.051-.211c-.067-.151-.189-.266-.354-.284-.21-.024-.425-.006-.663-.006v.148zM.295 7.362a.646.646 0 01.262-.069c.362-.008.726-.018 1.088 0 .625.03 1.103.311 1.407.844.132.231.185.485.177.752-.021.628-.337 1.073-.896 1.37-.041.021-.088.034-.131.054-.027.013-.049.035-.08.057.088.116.169.225.252.332.242.312.484.624.73.933a.548.548 0 01.113.472c-.034.16-.145.273-.295.347a.513.513 0 01-.621-.127c-.146-.172-.282-.352-.422-.529l-.57-.729-.158-.204c-.008-.011-.022-.018-.052-.042-.004.06-.009.1-.009.141-.001.331.005.663-.004.995a.535.535 0 01-.262.467c-.325.205-.733-.016-.787-.297-.014-.072-.034-.145-.034-.217C.001 10.569.002 9.226.002 7.884c0-.225.074-.416.293-.522zm.8 2.011c.213 0 .414.013.614-.004.207-.016.408-.218.444-.415a.52.52 0 00-.478-.605c-.169-.005-.338-.004-.507-.004-.023.001-.046.011-.073.019v1.009z"/></svg>

<svg 
 xmlns="http://www.w3.org/2000/svg"
 xmlns:xlink="http://www.w3.org/1999/xlink"
 width="14px" height="25px">
<path fill-rule="evenodd"  fill="rgb(0, 0, 0)"
 d="M14.000,22.255 C14.000,22.380 14.001,22.508 13.940,22.620 C13.837,22.808 13.675,22.915 13.447,22.914 C13.124,22.913 12.801,22.913 12.478,22.913 C12.313,22.913 12.148,22.913 11.982,22.915 C11.943,22.915 11.903,22.918 11.852,22.921 C11.848,22.973 11.843,23.018 11.843,23.064 C11.842,23.532 11.844,24.000 11.840,24.469 C11.839,24.704 11.724,24.871 11.495,24.960 C11.479,24.967 11.467,24.985 11.453,24.998 C9.920,24.998 8.386,24.998 6.853,24.998 C6.842,24.988 6.834,24.970 6.821,24.965 C6.554,24.875 6.465,24.671 6.453,24.422 C6.445,24.262 6.452,24.102 6.452,23.942 C6.452,22.068 6.451,20.194 6.452,18.320 C6.452,18.170 6.480,18.027 6.584,17.907 C6.678,17.799 6.791,17.726 6.941,17.721 C7.111,17.717 7.280,17.715 7.449,17.715 C7.792,17.714 8.135,17.716 8.478,17.715 C8.517,17.715 8.557,17.711 8.607,17.707 C8.611,17.658 8.616,17.616 8.616,17.575 C8.616,16.337 8.616,15.099 8.616,13.862 C8.616,12.202 8.616,10.543 8.616,8.884 C8.616,8.650 8.719,8.482 8.938,8.386 C8.988,8.365 9.046,8.351 9.100,8.350 C9.338,8.344 9.576,8.343 9.814,8.342 C10.088,8.341 10.363,8.344 10.637,8.343 C10.754,8.342 10.772,8.325 10.772,8.213 C10.773,7.565 10.772,6.917 10.772,6.269 C10.772,6.242 10.768,6.215 10.765,6.180 C10.693,6.145 10.619,6.108 10.544,6.073 C10.224,5.920 9.962,5.697 9.733,5.435 C9.437,5.096 9.214,4.714 9.030,4.311 C8.942,4.117 8.858,3.920 8.809,3.712 C8.772,3.553 8.713,3.400 8.681,3.242 C8.620,2.934 8.585,2.622 8.628,2.311 C8.725,1.617 9.048,1.038 9.609,0.592 C9.818,0.425 10.050,0.294 10.306,0.198 C10.491,0.130 10.675,0.072 10.871,0.045 C10.913,0.039 10.952,0.014 10.993,-0.001 C11.211,-0.001 11.429,-0.001 11.647,-0.001 C11.681,0.015 11.713,0.042 11.749,0.047 C12.365,0.141 12.878,0.423 13.296,0.862 C13.560,1.139 13.748,1.464 13.867,1.828 C13.947,2.069 13.987,2.314 13.993,2.563 C14.001,2.864 13.958,3.162 13.871,3.452 C13.829,3.593 13.801,3.739 13.749,3.877 C13.671,4.086 13.587,4.294 13.490,4.495 C13.357,4.772 13.196,5.035 13.003,5.277 C12.720,5.634 12.398,5.946 11.957,6.118 C11.920,6.133 11.887,6.156 11.851,6.176 C11.851,6.890 11.851,7.607 11.851,8.334 C11.906,8.338 11.953,8.343 12.000,8.343 C12.464,8.344 12.928,8.341 13.392,8.345 C13.482,8.346 13.580,8.352 13.662,8.384 C13.897,8.477 13.995,8.663 13.998,8.901 C14.000,9.170 14.000,9.439 14.000,9.709 C13.999,11.853 13.999,13.996 13.999,16.140 C13.999,18.178 13.999,20.216 14.000,22.255 ZM12.188,4.601 C12.415,4.296 12.584,3.962 12.714,3.608 C12.828,3.295 12.915,2.978 12.909,2.604 C12.901,2.500 12.905,2.359 12.865,2.215 C12.784,1.926 12.631,1.684 12.413,1.478 C12.112,1.195 11.739,1.071 11.329,1.041 C11.281,1.037 11.232,1.046 11.184,1.052 C11.129,1.059 11.073,1.067 11.018,1.078 C10.928,1.096 10.833,1.105 10.750,1.139 C10.447,1.262 10.186,1.439 9.993,1.703 C9.776,1.999 9.675,2.328 9.691,2.687 C9.708,3.050 9.802,3.400 9.938,3.737 C10.054,4.025 10.198,4.301 10.384,4.553 C10.540,4.764 10.709,4.963 10.943,5.101 C11.182,5.243 11.415,5.248 11.653,5.108 C11.872,4.979 12.040,4.799 12.188,4.601 ZM12.889,9.385 C12.545,9.385 12.200,9.385 11.842,9.385 C11.842,9.438 11.842,9.484 11.842,9.529 C11.842,10.330 11.843,11.130 11.843,11.931 C11.843,12.016 11.835,12.097 11.798,12.180 C11.654,12.510 11.198,12.648 10.894,12.318 C10.790,12.205 10.771,12.070 10.771,11.926 C10.773,11.125 10.772,10.325 10.772,9.524 C10.772,9.482 10.772,9.441 10.772,9.404 C10.659,9.369 9.803,9.369 9.686,9.403 C9.686,9.450 9.686,9.493 9.686,9.535 C9.686,10.609 9.686,11.682 9.686,12.757 C9.686,13.986 9.686,15.216 9.686,16.446 C9.686,17.027 9.688,17.610 9.685,18.191 C9.684,18.271 9.674,18.357 9.642,18.430 C9.548,18.651 9.366,18.751 9.121,18.751 C8.645,18.751 8.169,18.751 7.693,18.751 C7.650,18.751 7.607,18.751 7.548,18.751 C7.548,18.806 7.548,18.848 7.548,18.889 C7.548,19.276 7.547,19.662 7.547,20.049 C7.547,21.306 7.547,22.564 7.548,23.820 C7.548,23.865 7.557,23.910 7.562,23.963 C7.752,23.963 7.928,23.963 8.105,23.963 C8.944,23.963 9.783,23.964 10.622,23.964 C10.761,23.964 10.772,23.953 10.772,23.815 C10.773,23.663 10.772,23.511 10.772,23.358 C10.773,23.049 10.771,22.741 10.774,22.433 C10.774,22.360 10.777,22.282 10.802,22.215 C10.874,22.019 11.085,21.874 11.313,21.877 C11.797,21.883 12.281,21.878 12.765,21.878 C12.808,21.878 12.851,21.878 12.891,21.878 C12.921,21.751 12.917,9.475 12.889,9.385 ZM2.891,3.570 C2.726,3.767 2.532,3.931 2.288,4.031 C2.122,4.099 1.952,4.160 1.768,4.163 C1.586,4.166 1.404,4.168 1.223,4.170 C1.093,4.171 1.089,4.174 1.089,4.304 C1.088,4.764 1.089,5.225 1.088,5.686 C1.087,5.859 1.033,6.013 0.893,6.130 C0.576,6.394 0.111,6.210 0.038,5.884 C0.018,5.797 0.003,5.708 0.002,5.620 C-0.002,5.292 0.002,4.963 0.002,4.636 C0.002,4.307 0.002,3.980 0.002,3.651 C0.002,3.651 0.001,3.651 0.001,3.651 C0.001,2.976 0.000,2.300 0.001,1.625 C0.002,1.398 0.086,1.212 0.303,1.108 C0.387,1.068 0.487,1.044 0.581,1.042 C0.923,1.035 1.267,1.030 1.609,1.042 C2.084,1.058 2.499,1.217 2.821,1.569 C2.994,1.758 3.110,1.973 3.180,2.217 C3.246,2.443 3.241,2.668 3.209,2.889 C3.173,3.140 3.059,3.371 2.891,3.570 ZM2.111,2.408 C2.026,2.232 1.894,2.112 1.683,2.104 C1.510,2.097 1.337,2.100 1.164,2.100 C1.144,2.100 1.125,2.107 1.098,2.112 C1.098,2.448 1.098,2.782 1.098,3.131 C1.309,3.131 1.506,3.131 1.702,3.131 C1.710,3.131 1.719,3.131 1.727,3.129 C2.049,3.040 2.261,2.719 2.111,2.408 ZM0.146,19.965 C0.252,19.846 0.395,19.782 0.548,19.788 C0.731,19.796 0.902,19.866 0.996,20.037 C1.102,20.228 1.201,20.421 1.302,20.614 C1.483,20.960 1.663,21.306 1.843,21.653 C1.934,21.828 2.022,22.005 2.111,22.181 C2.116,22.189 2.125,22.196 2.150,22.223 C2.154,22.159 2.158,22.115 2.158,22.071 C2.159,21.485 2.159,20.899 2.159,20.314 C2.158,20.147 2.226,20.011 2.358,19.910 C2.634,19.698 3.013,19.785 3.175,20.078 C3.225,20.170 3.228,20.263 3.228,20.360 C3.228,21.039 3.228,21.719 3.227,22.398 C3.227,23.038 3.227,23.679 3.227,24.319 C3.227,24.377 3.227,24.436 3.226,24.495 C3.223,24.722 3.103,24.870 2.894,24.959 C2.879,24.965 2.870,24.985 2.858,24.998 C2.762,24.998 2.665,24.998 2.568,24.998 C2.552,24.988 2.537,24.971 2.518,24.965 C2.364,24.917 2.267,24.813 2.198,24.675 C2.083,24.443 1.962,24.214 1.843,23.983 C1.646,23.601 1.449,23.219 1.251,22.838 C1.211,22.762 1.166,22.689 1.124,22.614 C1.097,22.649 1.089,22.679 1.089,22.708 C1.088,22.888 1.089,23.067 1.089,23.247 C1.089,23.641 1.094,24.035 1.087,24.429 C1.082,24.674 0.988,24.872 0.730,24.963 C0.719,24.968 0.712,24.987 0.704,24.998 C0.599,24.998 0.494,24.998 0.389,24.998 C0.376,24.985 0.366,24.965 0.350,24.960 C0.107,24.871 0.011,24.684 0.004,24.451 C-0.005,24.131 0.000,23.811 0.000,23.491 C0.000,22.456 0.002,21.421 0.002,20.387 C0.002,20.230 0.038,20.087 0.146,19.965 ZM0.296,13.607 C0.376,13.568 0.472,13.546 0.562,13.545 C0.929,13.538 1.296,13.532 1.662,13.544 C2.306,13.565 2.891,13.947 3.127,14.553 C3.203,14.746 3.228,14.941 3.228,15.144 C3.227,15.745 3.228,16.347 3.227,16.947 C3.227,17.068 3.230,17.190 3.223,17.310 C3.196,17.770 2.974,18.131 2.612,18.419 C2.459,18.540 2.285,18.625 2.099,18.683 C1.985,18.718 1.863,18.742 1.744,18.744 C1.337,18.753 0.930,18.757 0.523,18.747 C0.226,18.740 0.024,18.532 0.004,18.226 C-0.005,18.090 0.002,17.952 0.002,17.816 C0.002,17.254 0.002,16.692 0.002,16.130 C0.002,15.455 0.001,14.779 0.002,14.104 C0.003,13.887 0.088,13.707 0.296,13.607 ZM1.088,14.748 C1.088,15.373 1.088,15.998 1.089,16.622 C1.089,16.946 1.088,17.271 1.089,17.595 C1.090,17.705 1.100,17.713 1.215,17.715 C1.332,17.716 1.450,17.723 1.566,17.713 C1.665,17.704 1.770,17.691 1.858,17.651 C2.060,17.559 2.157,17.391 2.158,17.175 C2.159,16.484 2.160,15.793 2.156,15.101 C2.156,15.030 2.135,14.955 2.105,14.890 C2.038,14.739 1.916,14.624 1.751,14.606 C1.541,14.582 1.326,14.600 1.088,14.600 C1.088,14.656 1.088,14.702 1.088,14.748 ZM0.295,7.362 C0.374,7.323 0.468,7.295 0.557,7.293 C0.919,7.285 1.283,7.275 1.645,7.293 C2.270,7.323 2.748,7.604 3.052,8.137 C3.184,8.368 3.237,8.622 3.229,8.889 C3.208,9.517 2.892,9.962 2.333,10.259 C2.292,10.280 2.245,10.293 2.202,10.313 C2.175,10.326 2.153,10.348 2.122,10.370 C2.210,10.486 2.291,10.595 2.374,10.702 C2.616,11.014 2.858,11.326 3.104,11.635 C3.217,11.777 3.253,11.938 3.217,12.107 C3.183,12.267 3.072,12.380 2.922,12.454 C2.685,12.571 2.437,12.487 2.301,12.327 C2.155,12.155 2.019,11.975 1.879,11.798 C1.689,11.555 1.499,11.312 1.309,11.069 C1.256,11.001 1.204,10.933 1.151,10.865 C1.143,10.854 1.129,10.847 1.099,10.823 C1.095,10.883 1.090,10.923 1.090,10.964 C1.089,11.295 1.095,11.627 1.086,11.959 C1.081,12.152 1.003,12.314 0.824,12.426 C0.499,12.631 0.091,12.410 0.037,12.129 C0.023,12.057 0.003,11.984 0.003,11.912 C0.001,10.569 0.002,9.226 0.002,7.884 C0.002,7.659 0.076,7.468 0.295,7.362 ZM1.095,9.373 C1.308,9.373 1.509,9.386 1.709,9.369 C1.916,9.353 2.117,9.151 2.153,8.954 C2.207,8.653 1.973,8.359 1.675,8.349 C1.506,8.344 1.337,8.345 1.168,8.345 C1.145,8.346 1.122,8.356 1.095,8.364 C1.095,8.697 1.095,9.027 1.095,9.373 Z"/>
</svg>
